tools/download-figma-icons/icons/outlined-medium/heater.svg

<svg width="24" height="24" viewBox="0 0 24 24" fill="none" xmlns="http://www.w3.org/2000/svg">
<path fill-rule="evenodd" clip-rule="evenodd" d="M1.49998 4.9012V5.59399L3.18505 6.0231C3.58645 6.12532 3.82899 6.53358 3.72677 6.93498C3.62455 7.33638 3.21629 7.57892 2.81489 7.4767L0.564898 6.90373C0.232578 6.8191 -1.5974e-05 6.51986 -1.5974e-05 6.17693V4.3167C-1.5974e-05 3.97305 0.233537 3.67337 0.566774 3.58943L2.81676 3.02264C3.21843 2.92146 3.62606 3.16504 3.72724 3.56671C3.82843 3.96837 3.58484 4.37601 3.18317 4.47719L1.49998 4.9012ZM9.75011 5.24991C9.75011 4.00728 8.74276 2.99992 7.50013 2.99992C6.25749 2.99992 5.25014 4.00728 5.25014 5.24991V18.7498C5.25014 19.9925 6.25749 20.9998 7.50013 20.9998C8.74276 20.9998 9.75011 19.9925 9.75011 18.7498V5.24991ZM6.75013 5.24991C6.75013 4.8357 7.08591 4.49992 7.50013 4.49992C7.91434 4.49992 8.25012 4.8357 8.25012 5.24991V18.7498C8.25012 19.1641 7.91434 19.4998 7.50013 19.4998C7.08591 19.4998 6.75013 19.1641 6.75013 18.7498V5.24991ZM13.5001 2.99992C14.7427 2.99992 15.7501 4.00728 15.7501 5.24991V18.7498C15.7501 19.9925 14.7427 20.9998 13.5001 20.9998C12.2575 20.9998 11.2501 19.9925 11.2501 18.7498V5.24991C11.2501 4.00728 12.2575 2.99992 13.5001 2.99992ZM13.5001 4.49992C13.0859 4.49992 12.7501 4.8357 12.7501 5.24991V18.7498C12.7501 19.1641 13.0859 19.4998 13.5001 19.4998C13.9143 19.4998 14.2501 19.1641 14.2501 18.7498V5.24991C14.2501 4.8357 13.9143 4.49992 13.5001 4.49992ZM19.5001 2.99992C20.7427 2.99992 21.7501 4.00728 21.7501 5.24991V18.7498C21.7501 19.9925 20.7427 20.9998 19.5001 20.9998C18.2574 20.9998 17.2501 19.9925 17.2501 18.7498V5.24991C17.2501 4.00728 18.2574 2.99992 19.5001 2.99992ZM19.5001 4.49992C19.0859 4.49992 18.7501 4.8357 18.7501 5.24991V18.7498C18.7501 19.1641 19.0859 19.4998 19.5001 19.4998C19.9143 19.4998 20.2501 19.1641 20.2501 18.7498V5.24991C20.2501 4.8357 19.9143 4.49992 19.5001 4.49992Z" fill="black"/>
</svg>

<svg width="24" height="24" viewBox="0 0 24 24" fill="none" xmlns="http://www.w3.org/2000/svg"><path fill-rule="evenodd" clip-rule="evenodd" d="M1.5 4.901v.693l1.685.43a.75.75 0 1 1-.37 1.453l-2.25-.573A.75.75 0 0 1 0 6.177v-1.86a.75.75 0 0 1 .567-.728l2.25-.566a.75.75 0 1 1 .366 1.454L1.5 4.901Zm8.25.349a2.25 2.25 0 1 0-4.5 0v13.5a2.25 2.25 0 1 0 4.5 0V5.25Zm-3 0a.75.75 0 1 1 1.5 0v13.5a.75.75 0 1 1-1.5 0V5.25ZM13.5 3a2.25 2.25 0 0 1 2.25 2.25v13.5a2.25 2.25 0 1 1-4.5 0V5.25A2.25 2.25 0 0 1 13.5 3Zm0 1.5a.75.75 0 0 0-.75.75v13.5a.75.75 0 1 0 1.5 0V5.25a.75.75 0 0 0-.75-.75Zm6-1.5a2.25 2.25 0 0 1 2.25 2.25v13.5a2.25 2.25 0 1 1-4.5 0V5.25A2.25 2.25 0 0 1 19.5 3Zm0 1.5a.75.75 0 0 0-.75.75v13.5a.75.75 0 1 0 1.5 0V5.25a.75.75 0 0 0-.75-.75Z" fill="currentColor"/></svg>
